X: 6550
T: Catharsis
R: reel
M: 4/4
K: Bminor
"Bm"FABA FABA|FABc dBcA|FABA FABA|"A/Fm" FGFE DEED|
"Bm" BABA FABA|FABc d2 de|"Gd'"fedc dcBA|1 "A/Fm"1FB BA "Bm"B2 B2]:|2 "A/Fm"2FB BA "Bm"Bc de]|
"Bm"fBBe B2 dB|Bc B2 cBce|"A/Fm"fAAe A2 dA|AcAA cBce|
"Gd'/Em" fGGe G2 dG|GcGG cBce|"Em" fedc dcBA|1 "A/Fm" FB BA "Bm"Bc de]:|2 "A/Fm" FB BA "Bm"B2 B2|

